X:1
T:No Sign of a Marriage
M:9/8
L:1/8
K:C
 F| D C/2C/2 C DFF GAG| G D2- D3 G2- A| FCCD-F F AAG| F6 F3| DCC DFF GAG|\
 G D2- D3 G2 A| FCC F A2- A2 G| F6 F3| GGA c3 c3| dcc A3- A2 F| G2 A c3 c3|\
 dcc A3- A2 A| GFF DFF GAG| G D2- D3 G2 A| FCC F A2- A2 G| F3- F2 z||\
